X:1
T:Confidence (Harmonia), 66.66.88
T:Confidence (Harmonia), 66.66.88
T:Harmonia Sacra, 19th Century
T:Public Domain Courtesy of the Cyber Hymnal™
C:Harmonia Sacra, 19th Century
Z:Public Domain
Z:Courtesy of the Cyber Hymnal™
%%score ( 1 2 ) ( 3 4 )
L:1/8
Q:1/4=115
M:4/4
K:C
V:1 treble 
V:2 treble 
V:3 bass 
V:4 bass 
V:1
|: [EA]4 | (G^F) E2 [Ec]2 [GB][FA] | [EB]6 (Bd) | [Ae]2 [Ae]2 (BA) [E^G]2 | !fermata![EA]4 :| %5
 z2 [Ac]2 | [Gd]2 [Gd]2 [Gd]2 ([Ac][Gd]) | [Ee]2 [Ee]2 (BA) [E^G]2 | ([Ec]B) [FA]2 (AG) (ED) | %9
 ([CE][D^F]) [E^G]2 [EA]4- | [EA]4 |] %11
V:2
|: x4 | E2 E2 x4 | x6 ^G2 | x4 ^G2 x2 | x4 :| x4 | x8 | x4 E2 x2 | x4 E2 ED | x8 | x4 |] %11
V:3
|: A,4 | [E,E]2 [^G,E]2 [A,C]2 ([G,B,]A,) | [E,^G,]6 [E,G,]2 | [C,A,]2 [D,C]2 (DC) [E,B,]2 | %4
 !fermata![A,,A,]4 :| z2 [E,C]2 | [G,B,]2 [G,B,]2 (B,A,) (CB,) | A,2 A,2 (^G,^F,) E,2 | %8
 [C,E]2 [D,F]2 [E,E]2 (A,B,) | [E,C]2 [E,B,]2 [A,,A,]4- | [A,,A,]4 |] %11
V:4
|: A,4 | x8 | x8 | x4 E,2 x2 | x4 :| x4 | x4 G,2 ^G,2 | A,2 A,2 E,2 E,2 | x6 A,2 | x8 | x4 |] %11

